X: 969
T: Texas Gals
B: jims roots
M:C|
L:1/8
Q: 1/4=100
K:C
V:1 
%Q:"Quick"
"C"B2-|c2c2 AcdB|cdcA G2(AB|c)Bc2AcdB|cdcA G2[_EB]-|
|:"C"^f2-|g2 ga g2 ed|cBcd c4|"F"egag a2gg|ec2d c2(^f2|
"C"g)ega g2[ee][de]|cBcd +slide+[e2e2]cA|"G"G(AB)G AG[G2B2]|"C"+slide+[E3c3]d [E2c2]:|
C2-|"C"C2 C2 ECDE|"F"DE-F2 F3(A|"G"B)AGB a2g2|"C"cAga "G"g2C2-|
"C"C2C2 ECCE|"F"FEFG F3(A|"G"B)AGA B2G2|"C"[Ec]B[Ec]d c2C2-||
"C"C2C2 ECCE|"F"FDFE F3(A|"G"B)AGB a2g2|"C"cAga "G"g2C2-|
"C"C2C2 ECCE|"F"FEFG F3(A|"G"B)AGA B2G2|"C"[Ec]B[E2c2]- [E2c2]|]
V:=E2c2 
V:E2c2 
AcdB|cdcA G2(A2|"G"B2)G2 A2B2|"C"cBcd c2:|
% abcbook-tune_id 6298c297dee96cc6edac9dfd


% abcbook-boost 0
% abcbook-tablature 
% abcbook-transpose 
% abcbook-lastupdated 1654178456094
% abcbook-soundfonts 
% abcbook-repeats 1


